X:1
T:Title
%%score { ( 1 3 ) | 2 }
L:1/8
M:4/4
K:Eb
V:1 treble nm="Grand Piano"
V:3 treble 
V:2 bass 
V:1
 z4 z2[Q:1/4=100] [CE][CA] | [Ec][Ec][D=B][Ec] [CA]2 [CE]2 | [_DF]2 [F_d]4 BA | GGGG F2 EE | %4
 [CA]6 [CE][CA] | [Ec][Ec][D=B][Ec] [CA]2 [CE]2 | [_DF]2 [F_d]4 BA | GGGG F2 EE |[M:3/4] [CA]6 | %9
[M:1/4] [Ec][Ec] |[M:4/4] z4 z2 _d2 | c>=B c4 [CA][CA] | BBBB A2 B2 | [Ec]6 [Ec][Ec] | z4 z2 _d2 | %15
 c>=B c4 [CA][EA] | z4 z2 B2 |[M:3/4] [CA]6 |] %18
V:2
 z4 z2 [A,,A,][A,,E,] | [A,,A,][A,,A,][A,,A,][A,,A,] [A,,E,]2 [A,,A,]2 | %2
 [_D,A,]2 [D,A,]4 [D,F,_D][D,B,D] | [E,B,_D][E,B,D][E,B,D][E,B,D] [E,A,D]2 .[E,G,D]2 | %4
 [A,,A,]6 [A,,A,][A,,E,] | [A,,A,][A,,A,][A,,A,][A,,A,] [A,,E,]2 [A,,A,]2 | %6
 [_D,A,]2 [D,A,]4 [D,F,_D][D,B,D] | [E,B,_D][E,B,D][E,B,D][E,B,D] [E,A,D]2 .[E,G,D]2 | %8
[M:3/4] [A,,A,]6 |[M:1/4] [A,,A,][A,,A,] |[M:4/4] [_D,A,]<[D,A,] [D,A,]>[D,A,] D,E, .[F,A,F]2 | %11
 [A,E]>[A,D] [A,E]4 [A,,A,][A,,A,] | [E,G,_D][E,G,D][E,G,D][E,G,D] [F,A,C]2 [E,G,E]2 | %13
 [A,,A,]6 [A,,A,][A,,A,] | [_D,A,][D,A,][D,A,][D,A,] D,E, .[F,A,F]2 | %15
 [A,E]>[A,D] [A,E]4 [A,,A,][C,A,] | [E,G,_D][E,G,D][E,_G,D][E,=G,D] [E,A,E]2 .[E,G,E]2 | %17
[M:3/4] [A,,A,]6 |] %18
V:3
 x8 | x8 | x8 | x8 | x8 | x8 | x8 | x8 |[M:3/4] x6 |[M:1/4] x2 | %10
[M:4/4] [F_d]<[Fd] [Fd]>[Fd] [A,_DF]2 z G, | x8 | x8 | x8 | [F_d][Fd][Fd][Fd] [A,_DF]2 z G, | x8 | %16
 BB=AB c2 z _D |[M:3/4] x6 |] %18

